images/color/svg/1f684.svg

<svg id="emoji" viewBox="0 0 72 72" xmlns="http://www.w3.org/2000/svg">
  <g id="color">
    <g>
      <path fill="#9b9b9a" d="M68,48v5.5H12.652a1.0042,1.0042,0,0,1-.5031-1.8732L18.4133,48Z"/>
      <path fill="#3f3f3f" d="M68,36.5H41.8438a1.2857,1.2857,0,0,1-.69-2.37l7.2593-4.62a12.8567,12.8567,0,0,1,6.9026-2.01H68"/>
      <path fill="#3f3f3f" d="M15.6108,36.5h9.502a12.857,12.857,0,0,0,6.9027-2.01L39.2748,29.87a1.2857,1.2857,0,0,0-.69-2.37H29.1108"/>
      <path fill="#d22f27" d="M67.9321,44H18.64a.5714.5714,0,0,1-.3068-1.0535L21.56,40.8934A5.7141,5.7141,0,0,1,24.6278,40H67.9321"/>
    </g>
  </g>
  <g id="line">
    <g>
      <path fill="none" stroke="#000" stroke-linecap="round" stroke-miterlimit="10" stroke-width="2" d="M67,36.5H41.8438a1.2857,1.2857,0,0,1-.69-2.37l7.2593-4.62a12.8567,12.8567,0,0,1,6.9026-2.01H67"/>
      <path fill="none" stroke="#000" stroke-linecap="round" stroke-miterlimit="10" stroke-width="2" d="M15.6108,36.5h9.502a12.857,12.857,0,0,0,6.9027-2.01L39.2748,29.87a1.2857,1.2857,0,0,0-.69-2.37H29.1108"/>
      <path fill="none" stroke="#000" stroke-linecap="round" stroke-miterlimit="10" stroke-width="2" d="M67,48H8.2691A3,3,0,0,1,6.605,42.5038L31.5537,25.8714A23.3767,23.3767,0,0,1,44.521,21.9452H67"/>
      <path fill="none" stroke="#000" stroke-linecap="round" stroke-miterlimit="10" stroke-width="2" d="M67,53.5H12.652a1.0042,1.0042,0,0,1-.5031-1.8732L18.4133,48"/>
      <path fill="none" stroke="#000" stroke-linecap="round" stroke-miterlimit="10" stroke-width="2" d="M66.9321,44H18.64a.5714.5714,0,0,1-.3068-1.0535L21.56,40.8934A5.7141,5.7141,0,0,1,24.6278,40H66.9321"/>
    </g>
  </g>
</svg>

<svg viewBox="0 0 72 72" xmlns="http://www.w3.org/2000/svg">d<path fill="#fff" d="m68 48-61.78-.503-1.131-3.958 31.76-21.02 31.15-.578z"/><path fill="#9b9b9a" d="M68 48v5.5H12.65a1.004 1.004 0 0 1-.503-1.873L18.41 48z"/><path fill="#3f3f3f" d="M68 36.5H41.84a1.286 1.286 0 0 1-.69-2.37l7.259-4.62a12.86 12.86 0 0 1 6.903-2.01h12.68m-52.382 9h9.502a12.86 12.86 0 0 0 6.903-2.01l7.259-4.62a1.286 1.286 0 0 0-.69-2.37H29.11"/><path fill="#d22f27" d="M67.93 44H18.64a.571.571 0 0 1-.307-1.054l3.227-2.053A5.714 5.714 0 0 1 24.628 40h43.3"/><g fill="none" stroke="#000" stroke-linecap="round" stroke-miterlimit="10" stroke-width="2"><path d="M67 36.5H41.84a1.286 1.286 0 0 1-.69-2.37l7.259-4.62a12.86 12.86 0 0 1 6.903-2.01h11.68m-51.382 9h9.502a12.86 12.86 0 0 0 6.903-2.01l7.259-4.62a1.286 1.286 0 0 0-.69-2.37H29.11"/><path d="M67 48H8.27a3 3 0 0 1-1.664-5.496l24.95-16.63a23.38 23.38 0 0 1 12.97-3.926h22.48M67 53.5H12.65a1.004 1.004 0 0 1-.503-1.873L18.41 48"/><path d="M66.93 44H18.64a.571.571 0 0 1-.307-1.054l3.227-2.053A5.714 5.714 0 0 1 24.628 40h42.3"/></g></svg>
